svg/icon/veri.svg

<svg xmlns="http://www.w3.org/2000/svg" xmlns:xlink="http://www.w3.org/1999/xlink" width="32" height="32" viewBox="0 0 32 32"><defs><linearGradient id="veri-c" x1="50%" x2="50%" y1="0%" y2="100%"><stop offset="0%" stop-color="#FFF" stop-opacity=".5"/><stop offset="100%" stop-opacity=".5"/></linearGradient><circle id="veri-b" cx="16" cy="15" r="15"/><filter id="veri-a" width="111.7%" height="111.7%" x="-5.8%" y="-4.2%" filterUnits="objectBoundingBox"><feOffset dy=".5" in="SourceAlpha" result="shadowOffsetOuter1"/><feGaussianBlur in="shadowOffsetOuter1" result="shadowBlurOuter1" stdDeviation=".5"/><feComposite in="shadowBlurOuter1" in2="SourceAlpha" operator="out" result="shadowBlurOuter1"/><feColorMatrix in="shadowBlurOuter1" values="0 0 0 0 0 0 0 0 0 0 0 0 0 0 0 0 0 0 0.199473505 0"/></filter><path id="veri-e" d="M6,7 C7.1043624,7.00204346 8.20852479,7.00228186 9.31248718,7.00071521 C10.0101055,10.7272981 10.7070905,14.4536767 11.4034422,18.1798509 C11.4356431,18.3445534 11.4758441,18.5080299 11.5186452,18.6702804 C11.6831496,18.0206656 11.7858523,17.356338 11.9227559,16.7000821 C12.5578393,13.467062 13.1927226,10.2338034 13.827406,7.00030652 C14.8955674,7.00098767 15.9635289,7.00122607 17.0312903,7.00102173 C15.8557927,12.2334275 14.6800951,17.4657311 13.5041975,22.6979325 L9.52699282,22.6979325 C8.35022852,17.4690687 7.17456424,12.2400006 6,7.01072814 L6,7 Z M18.3139241,11.9315749 C19.0109424,11.0560562 20.1251717,10.6587061 21.1992,10.5894329 C22.2581279,10.5147446 23.401358,10.6109914 24.2992816,11.2433389 C25.0943025,11.7994655 25.530014,12.7388423 25.7373194,13.6741322 C25.988026,14.8455434 26.0012264,16.0504674 25.9999263,17.2440501 C24.0432748,17.2447313 22.0868234,17.2449697 20.1305719,17.2447653 C20.135172,18.1270275 20.0792705,19.0381025 20.3753783,19.8833781 C20.5181821,20.2996301 20.7847891,20.7131235 21.2093003,20.8651566 C21.6608121,21.0123876 22.2051265,20.916243 22.5348352,20.5517926 C22.9748467,20.054211 23.0666491,19.3555534 23.1627517,18.717382 L25.8269218,18.717382 C25.7669202,19.7771184 25.5709151,20.896728 24.8768968,21.7298451 C24.1812785,22.595964 23.0590489,22.9502993 21.996821,22.9933141 C20.8430906,23.037044 19.5899576,22.8803109 18.6699334,22.1029802 C17.8150109,21.3895075 17.4418011,20.2598849 17.2936972,19.1772618 C17.1455933,17.9299362 17.1376931,16.6684085 17.2067949,15.4150547 C17.3002974,14.1932722 17.5214032,12.899458 18.313124,11.9309619 L18.3139241,11.9315749 Z M20.5883839,13.1774702 C20.133572,13.8313761 20.1223717,14.6729736 20.1296719,15.4435609 C21.1398984,15.444242 22.1505917,15.444242 23.1617516,15.4435609 C23.1150504,14.7112884 23.1202506,13.9366141 22.7899419,13.2655431 C22.3804311,12.4379434 21.084097,12.4345717 20.5891839,13.1775723 L20.5883839,13.1774702 Z"/><filter id="veri-d" width="117.5%" height="121.9%" x="-8.8%" y="-7.8%" filterUnits="objectBoundingBox"><feOffset dy=".5" in="SourceAlpha" result="shadowOffsetOuter1"/><feGaussianBlur in="shadowOffsetOuter1" result="shadowBlurOuter1" stdDeviation=".5"/><feColorMatrix in="shadowBlurOuter1" values="0 0 0 0 0 0 0 0 0 0 0 0 0 0 0 0 0 0 0.204257246 0"/></filter></defs><g fill="none" fill-rule="evenodd"><g fill-rule="nonzero"><use fill="#000" filter="url(#veri-a)" xlink:href="#veri-b"/><use fill="#F93" fill-rule="evenodd" xlink:href="#veri-b"/><use fill="url(#veri-c)" fill-rule="evenodd" style="mix-blend-mode:soft-light" xlink:href="#veri-b"/><circle cx="16" cy="15" r="14.5" stroke="#000" stroke-opacity=".097"/></g><g fill-rule="nonzero"><use fill="#000" filter="url(#veri-d)" xlink:href="#veri-e"/><use fill="#FFF" fill-rule="evenodd" xlink:href="#veri-e"/></g></g></svg>

<svg xmlns="http://www.w3.org/2000/svg" xmlns:xlink="http://www.w3.org/1999/xlink" width="32" height="32" viewBox="0 0 32 32"><defs><linearGradient id="c" x1="50%" x2="50%" y1="0%" y2="100%"><stop offset="0%" stop-color="#FFF" stop-opacity=".5"/><stop offset="100%" stop-opacity=".5"/></linearGradient><circle id="b" cx="16" cy="15" r="15"/><filter id="a" width="111.7%" height="111.7%" x="-5.8%" y="-4.2%" filterUnits="objectBoundingBox"><feOffset dy=".5" in="SourceAlpha" result="shadowOffsetOuter1"/><feGaussianBlur in="shadowOffsetOuter1" result="shadowBlurOuter1" stdDeviation=".5"/><feComposite in="shadowBlurOuter1" in2="SourceAlpha" operator="out" result="shadowBlurOuter1"/><feColorMatrix in="shadowBlurOuter1" values="0 0 0 0 0 0 0 0 0 0 0 0 0 0 0 0 0 0 0.199473505 0"/></filter><path id="e" d="M6 7c1.104.002 2.209.002 3.312 0l2.091 11.18c.033.165.073.328.116.49.164-.65.267-1.314.404-1.97L13.827 7l3.204.001c-1.175 5.232-2.35 10.465-3.527 15.697H9.527C8.35 17.469 7.175 12.24 6 7.01V7zm12.314 4.932c.697-.876 1.811-1.273 2.885-1.343 1.06-.074 2.202.022 3.1.654.795.556 1.231 1.496 1.438 2.431.251 1.172.264 2.376.263 3.57h-5.87c.005.883-.05 1.794.245 2.64.143.416.41.83.834.981.452.147.996.051 1.326-.313.44-.498.532-1.196.628-1.835h2.664c-.06 1.06-.256 2.18-.95 3.013-.696.866-1.818 1.22-2.88 1.263-1.154.044-2.407-.113-3.327-.89-.855-.713-1.228-1.843-1.376-2.926-.148-1.247-.156-2.509-.087-3.762.093-1.222.314-2.516 1.106-3.484zm2.274 1.245c-.454.654-.466 1.496-.458 2.267h3.032c-.047-.733-.042-1.507-.372-2.178-.41-.828-1.706-.831-2.2-.088h-.002z"/><filter id="d" width="117.5%" height="121.9%" x="-8.8%" y="-7.8%" filterUnits="objectBoundingBox"><feOffset dy=".5" in="SourceAlpha" result="shadowOffsetOuter1"/><feGaussianBlur in="shadowOffsetOuter1" result="shadowBlurOuter1" stdDeviation=".5"/><feColorMatrix in="shadowBlurOuter1" values="0 0 0 0 0 0 0 0 0 0 0 0 0 0 0 0 0 0 0.204257246 0"/></filter></defs><g fill="none"><use fill="#000" filter="url(#a)" xlink:href="#b"/><use fill="#F93" fill-rule="evenodd" xlink:href="#b"/><use fill="url(#c)" fill-rule="evenodd" style="mix-blend-mode:soft-light" xlink:href="#b"/><circle cx="16" cy="15" r="14.5" stroke="#000" stroke-opacity=".097"/><use fill="#000" filter="url(#d)" xlink:href="#e"/><use fill="#FFF" fill-rule="evenodd" xlink:href="#e"/></g></svg>
